public/cards/skip_blue.svg

<svg width="242" height="362" viewBox="0 0 242 362" fill="none" xmlns="http://www.w3.org/2000/svg">
<path d="M201 1H41C18.9086 1 1 18.9086 1 41V321C1 343.091 18.9086 361 41 361H201C223.091 361 241 343.091 241 321V41C241 18.9086 223.091 1 201 1Z" fill="white" stroke="black" stroke-width="2"/>
<path d="M201 21H41C29.9543 21 21 29.9543 21 41V321C21 332.046 29.9543 341 41 341H201C212.046 341 221 332.046 221 321V41C221 29.9543 212.046 21 201 21Z" fill="#5555FF"/>
<path fill-rule="evenodd" clip-rule="evenodd" d="M181 81C92.6344 81 21 152.634 21 241C21 263.091 38.9086 281 61 281C149.366 281 221 209.366 221 121C221 98.9086 203.091 81 181 81Z" fill="white"/>
<path fill-rule="evenodd" clip-rule="evenodd" d="M121.125 121C105.77 120.98 90.3561 126.8 78.6251 138.5C55.1631 161.901 55.0994 199.913 78.5003 223.375C101.901 246.837 139.913 246.901 163.375 223.5C186.837 200.099 186.901 162.087 163.5 138.625C151.8 126.894 136.48 121.02 121.125 121ZM121 141C128 141.008 135.031 142.84 141.25 146.5L86.5003 201.25C77.4589 185.899 79.5531 165.788 92.7503 152.625C100.571 144.825 110.763 140.987 121 141ZM155.5 160.625C164.604 175.988 162.474 196.186 149.25 209.375C136.04 222.551 115.959 224.488 100.625 215.375L155.5 160.625Z" fill="#5555FF"/>
<path fill-rule="evenodd" clip-rule="evenodd" d="M61.0622 31C53.386 30.988 45.6808 33.8995 39.8164 39.7491C28.0876 51.4485 28.0557 70.4528 39.7539 82.1827C51.4521 93.9126 70.4548 93.9445 82.1836 82.2451C93.9123 70.5458 93.9441 51.5415 82.2458 39.8116C76.3967 33.9466 68.7386 31.01 61.0622 31ZM61 40.999C64.4991 41.003 68.0141 41.9191 71.123 43.7488L43.7532 71.1212C39.2332 63.4463 40.28 53.3919 46.8774 46.811C50.7871 42.9112 55.8825 40.9923 61 40.999ZM78.2468 50.8105C82.7979 58.4913 81.7329 68.5894 75.1223 75.1833C68.5181 81.771 58.4795 82.7393 50.8142 78.1831L78.2468 50.8105Z" fill="white"/>
<path fill-rule="evenodd" clip-rule="evenodd" d="M181.062 271C173.386 270.988 165.681 273.9 159.816 279.749C148.088 291.448 148.056 310.453 159.754 322.183C171.452 333.913 190.455 333.944 202.184 322.245C213.912 310.546 213.944 291.542 202.246 279.812C196.397 273.947 188.739 271.01 181.062 271ZM181 280.999C184.499 281.003 188.014 281.919 191.123 283.749L163.753 311.121C159.233 303.446 160.28 293.392 166.877 286.811C170.787 282.911 175.883 280.992 181 280.999ZM198.247 290.811C202.798 298.491 201.733 308.589 195.122 315.183C188.518 321.771 178.479 322.739 170.814 318.183L198.247 290.811Z" fill="white"/>
</svg>

<svg xmlns="http://www.w3.org/2000/svg" width="242" height="362" fill="none"><path fill="#fff" stroke="#000" stroke-width="2" d="M201 1H41C18.909 1 1 18.909 1 41v280c0 22.091 17.909 40 40 40h160c22.091 0 40-17.909 40-40V41c0-22.091-17.909-40-40-40Z"/><path fill="#55F" d="M201 21H41c-11.046 0-20 8.954-20 20v280c0 11.046 8.954 20 20 20h160c11.046 0 20-8.954 20-20V41c0-11.046-8.954-20-20-20Z"/><path fill="#fff" fill-rule="evenodd" d="M181 81C92.634 81 21 152.634 21 241c0 22.091 17.909 40 40 40 88.366 0 160-71.634 160-160 0-22.091-17.909-40-40-40Z" clip-rule="evenodd"/><path fill="#55F" fill-rule="evenodd" d="M121.125 121c-15.355-.02-30.769 5.8-42.5 17.5-23.462 23.401-23.526 61.413-.125 84.875 23.401 23.462 61.413 23.526 84.875.125 23.462-23.401 23.526-61.413.125-84.875-11.7-11.731-27.02-17.605-42.375-17.625ZM121 141c7 .008 14.031 1.84 20.25 5.5L86.5 201.25c-9.041-15.351-6.947-35.462 6.25-48.625 7.821-7.8 18.013-11.638 28.25-11.625Zm34.5 19.625c9.104 15.363 6.974 35.561-6.25 48.75-13.21 13.176-33.291 15.113-48.625 6l54.875-54.75Z" clip-rule="evenodd"/><path fill="#fff" fill-rule="evenodd" d="M61.062 31c-7.676-.012-15.381 2.9-21.246 8.75-11.728 11.699-11.76 30.703-.062 42.433s30.7 11.761 42.43.062c11.728-11.7 11.76-30.704.062-42.433A29.866 29.866 0 0 0 61.062 31ZM61 40.999c3.5.004 7.014.92 10.123 2.75L43.753 71.12c-4.52-7.675-3.473-17.73 3.124-24.31 3.91-3.9 9.005-5.819 14.123-5.812Zm17.247 9.811c4.55 7.681 3.486 17.78-3.125 24.373-6.604 6.588-16.642 7.556-24.308 3L78.247 50.81ZM181.062 271c-7.676-.012-15.381 2.9-21.246 8.749-11.728 11.699-11.76 30.704-.062 42.434 11.698 11.73 30.701 11.761 42.43.062 11.728-11.699 11.76-30.703.062-42.433-5.849-5.865-13.507-8.802-21.184-8.812Zm-.062 9.999c3.499.004 7.014.92 10.123 2.75l-27.37 27.372c-4.52-7.675-3.473-17.729 3.124-24.31 3.91-3.9 9.006-5.819 14.123-5.812Zm17.247 9.812c4.551 7.68 3.486 17.778-3.125 24.372-6.604 6.588-16.643 7.556-24.308 3l27.433-27.372Z" clip-rule="evenodd"/></svg>
